!!!OTL: 322. Deutsches Vaterlands- und Trinklied.
!!!ODT: 1791 (Mel)
!!!ARE: Europa, Mitteleuropa, Deutschland
!!!SCT: B0322
!!!TXL: @@DE
!!!YEM: Copyright 1995, estate of Helmut Schaffrath.
**kern	**text
*ICvox	*
*Ivox	*
*M4/4	*
*met(c)	*
*clefG2	*
*k[b-e-]	*
*B-:	*
=1	=1
!LO:TX:a:t=Kraftvoll.	!
{4.b-	Auf,
8f	ihr
4g	mei-
4d	-ne
=2	=2
8e-L	deut-
8fJ	.
8gL	-ſchen
8aJ	.
8b-L	Brü-
8fJ	.
4f}	-der,
=3	=3
{8ddL	ſei-
8b-J	.
8ffL	-ern
8ddJ	.
4.cc	wol-
8b-	-len
=4	=4
4a	wir
4g	die
4f	Nacht.
4r}	.
=5	=5
{4.b-	Schal-
8f	-len
4g	ſol-
4d	-len
=6	=6
8e-L	fro-
8fJ	.
8gL	-he
8aJ	.
8b-L	Lie-
8fJ	.
4f}	-der,
=7	=7
{8ddL	bis
8b-J	.
8ffL	der
8ddJ	.
4.cc	Mor-
8b-	-gen-
=8	=8
4a	-ſtern
4g	er-
4f	-wacht.
4r}	.
=9	=9
{4f	Laßt
4b-	die
4.g	Stun-
8g	-den
=10	=10
4.cc	uns
8b-	be-
8b-L	-flü-
8aJ	.
8gL	-geln!
8fJ}	.
=11	=11
{4.ee-	Hier
8cc	iſt
4.dd	äch-
8b-	-ter
=12	=12
8b-L	deut-
8aJ	.
8b-L	-ſcher
8ccJ	.
(4dd	Wein,
4cc)}	.
=13	=13
{4f	aus-
4b-	-ge-
4.g	-preßt
8g	anf
=14	=14
4.cc	deut-
8b-	-ſchen
8b-/L	Hü-
8aJ	.
8gL	-geln
8fJ}	.
=15	=15
{4.ee-	und
8cc	ge-
4dd	-reift
8ee-L	am
8ccJ	.
=16	=16
4b-	al-
4a	-ten
4b-	Rhein!
4r}	.
==	==
!!!AGN: Trink -, Vaterlands - Lied
!!!GTL: Wein- und Trinklieder
!!!ONB: ESAC (Essen Associative Code) Database: BOEHME
!!!AMT: simple quadruple
!!!AIN: vox
!!!EED: Helmut Schaffrath
!!!EEV: 1.0
!!Mel. 1791.
!!@@COMMENT:"Gedicht von Joh. Martin Müller 1772. Mel. ʒuerſt in: "Auswahl guter Trinklieder".
!!Halle 1791. Dort im Anhange als Nr. 1. War lange Ʒeit ein beliebtes Studentenlied."
!!@@END:
!!!Text: Joh. M, Müller
!!!URL-scan: https://archive.org/details/BoehmeVtLieder1895/page/n269/mode/2up
!!!ENC: Anna Maria Matuszewska
!!!EEV: 2024/04/07
*-	*-
